fs/multiplier_1_5x_32_filled.svg

<svg viewBox="0 0 32 32" fill="none" xmlns="http://www.w3.org/2000/svg" height="1em" width="1em">
  <path d="M7.20843 9.08707C7.68617 9.27531 8.00019 9.73656 8.00019 10.25V21.7502C8.00019 22.4405 7.44066 23.0001 6.75038 23.0002C6.05995 23.0003 5.50019 22.4406 5.50019 21.7502V13.2423C5.0682 13.575 4.54851 13.9288 3.89331 14.3219C3.30133 14.6771 2.53351 14.4851 2.17832 13.8931C1.82314 13.3012 2.01509 12.5334 2.60707 12.1782C3.62799 11.5656 4.20571 11.1054 4.62097 10.7109C4.90818 10.438 5.10052 10.2196 5.33006 9.95899C5.47348 9.79615 5.63146 9.6168 5.83616 9.39737C6.18643 9.0219 6.73069 8.89883 7.20843 9.08707ZM14.2495 9.00003C13.6073 9.00003 13.0696 9.48665 13.0057 10.1256L12.5057 15.1256C12.4675 15.5074 12.6068 15.8855 12.8834 16.1513C13.1601 16.4172 13.5435 16.5412 13.9234 16.4878L16.8267 16.08C18.2385 15.8817 19.4995 16.9779 19.4995 18.4036C19.4995 19.6995 18.449 20.75 17.1531 20.75H16.7172C16.0147 20.75 15.3382 20.4843 14.8235 20.0061L14.1003 19.3342C13.5945 18.8643 12.8036 18.8934 12.3337 19.3992C11.8639 19.905 11.893 20.6959 12.3987 21.1658L13.122 21.8377C14.0991 22.7455 15.3835 23.25 16.7172 23.25H17.1531C19.8297 23.25 21.9995 21.0802 21.9995 18.4036C21.9995 15.4589 19.395 13.1947 16.4789 13.6043L15.1517 13.7908L15.3808 11.5H20.2495C20.9399 11.5 21.4995 10.9404 21.4995 10.25C21.4995 9.55967 20.9399 9.00003 20.2495 9.00003H14.2495ZM25.1339 16.3661C24.6457 15.878 23.8543 15.878 23.3661 16.3661C22.878 16.8543 22.878 17.6458 23.3661 18.1339L24.7322 19.5L23.3661 20.8661C22.878 21.3543 22.878 22.1457 23.3661 22.6339C23.8543 23.122 24.6457 23.122 25.1339 22.6339L26.5 21.2678L27.8661 22.6339C28.3543 23.122 29.1457 23.122 29.6339 22.6339C30.122 22.1457 30.122 21.3543 29.6339 20.8661L28.2678 19.5L29.6339 18.1339C30.122 17.6458 30.122 16.8543 29.6339 16.3661C29.1457 15.878 28.3543 15.878 27.8661 16.3661L26.5 17.7323L25.1339 16.3661ZM11 22C11 22.5523 10.5523 23 10 23C9.44772 23 9 22.5523 9 22C9 21.4477 9.44772 21 10 21C10.5523 21 11 21.4477 11 22Z" fill="#212121"/>
</svg>

<svg viewBox="0 0 32 32" fill="none" xmlns="http://www.w3.org/2000/svg" height="1em" width="1em">
  <path d="M7.208 9.087c.478.188.792.65.792 1.163v11.5a1.25 1.25 0 1 1-2.5 0v-8.508c-.432.333-.951.687-1.607 1.08a1.25 1.25 0 0 1-1.286-2.144c1.021-.612 1.599-1.073 2.014-1.467.287-.273.48-.491.71-.752.142-.163.3-.342.505-.562a1.25 1.25 0 0 1 1.372-.31ZM14.25 9a1.25 1.25 0 0 0-1.243 1.126l-.5 5a1.25 1.25 0 0 0 1.417 1.362l2.904-.408a2.346 2.346 0 1 1 .326 4.67h-.436a2.782 2.782 0 0 1-1.893-.744l-.724-.672a1.25 1.25 0 1 0-1.701 1.832l.723.672a5.282 5.282 0 0 0 3.595 1.412h.436a4.846 4.846 0 1 0-.674-9.646l-1.327.187.229-2.291h4.869a1.25 1.25 0 1 0 0-2.5h-6Zm10.885 7.366a1.25 1.25 0 0 0-1.768 1.768l1.366 1.366-1.366 1.366a1.25 1.25 0 0 0 1.768 1.768l1.366-1.366 1.366 1.366a1.25 1.25 0 0 0 1.768-1.768L28.268 19.5l1.366-1.366a1.25 1.25 0 0 0-1.768-1.768L26.5 17.732l-1.366-1.366ZM11 22a1 1 0 1 1-2 0 1 1 0 0 1 2 0Z" fill="#212121"/>
</svg>
